X: 1
T: Stumpie
T: Wap an' Rowe
O: Trad (1734)
R: strathspey
Z: 1999 John Chambers <jc:trillian.mit.edu>
M: 4/4
L: 1/16
K: G
   c |\
"G"Bd3 g4 gfed g4 | Bd3 g4 {fg}"D7"aA3 A3c |\
"G"Bd3 g4 gfed g4 | Bd3 "D7"A3c "G"BG3 G3 :|
|: A |\
"G"Bd3 d3B "C"ce3 e3c | "G"Bd3 d3G "Am"[eB]A3 "D7"A3c |\
"G"Bd3 d3B "C"ce3 e3c | "G"Bg3 "D7"A3c "G"BG3 G3 :|
